public/library/ripple-icon-dark.svg

<svg xmlns="http://www.w3.org/2000/svg" xmlns:xlink="http://www.w3.org/1999/xlink" width="512" zoomAndPan="magnify" viewBox="0 0 384 383.999986" height="512" preserveAspectRatio="xMidYMid meet" version="1.0"><defs><clipPath id="be9b5487e7"><path d="M 5.707031 5.707031 L 378.292969 5.707031 L 378.292969 378.292969 L 5.707031 378.292969 Z M 5.707031 5.707031 " clip-rule="nonzero"/></clipPath><clipPath id="ae7e881009"><path d="M 192 5.707031 C 89.113281 5.707031 5.707031 89.113281 5.707031 192 C 5.707031 294.886719 89.113281 378.292969 192 378.292969 C 294.886719 378.292969 378.292969 294.886719 378.292969 192 C 378.292969 89.113281 294.886719 5.707031 192 5.707031 Z M 192 5.707031 " clip-rule="nonzero"/></clipPath><clipPath id="168182e4a1"><path d="M 0.707031 0.707031 L 373.292969 0.707031 L 373.292969 373.292969 L 0.707031 373.292969 Z M 0.707031 0.707031 " clip-rule="nonzero"/></clipPath><clipPath id="57c21dfcbe"><path d="M 187 0.707031 C 84.113281 0.707031 0.707031 84.113281 0.707031 187 C 0.707031 289.886719 84.113281 373.292969 187 373.292969 C 289.886719 373.292969 373.292969 289.886719 373.292969 187 C 373.292969 84.113281 289.886719 0.707031 187 0.707031 Z M 187 0.707031 " clip-rule="nonzero"/></clipPath><clipPath id="da3167141c"><rect x="0" width="374" y="0" height="374"/></clipPath><clipPath id="b20d2804e7"><path d="M 52.183594 58.84375 L 296.683594 58.84375 L 296.683594 324 L 52.183594 324 Z M 52.183594 58.84375 " clip-rule="nonzero"/></clipPath></defs><g clip-path="url(#be9b5487e7)"><g clip-path="url(#ae7e881009)"><g transform="matrix(1, 0, 0, 1, 5, 5)"><g clip-path="url(#da3167141c)"><g clip-path="url(#168182e4a1)"><g clip-path="url(#57c21dfcbe)"><path fill="#0069fe" d="M 0.707031 0.707031 L 373.292969 0.707031 L 373.292969 373.292969 L 0.707031 373.292969 Z M 0.707031 0.707031 " fill-opacity="1" fill-rule="nonzero"/></g></g></g></g></g></g><g clip-path="url(#b20d2804e7)"><path fill="#ffffff" d="M 269 220.671875 C 259.632812 215.25 249.070312 213.6875 238.605469 213.34375 C 229.828125 213.050781 216.75 207.433594 216.75 191.359375 C 216.800781 185.570312 219.113281 180.03125 223.199219 175.921875 C 227.28125 171.816406 232.8125 169.46875 238.605469 169.378906 C 249.070312 169.011719 259.632812 167.449219 269 162.050781 C 277.40625 157.1875 284.386719 150.199219 289.234375 141.785156 C 294.085938 133.375 296.632812 123.839844 296.625 114.132812 C 296.621094 104.425781 294.054688 94.890625 289.195312 86.488281 C 284.332031 78.082031 277.34375 71.105469 268.925781 66.253906 C 260.511719 61.402344 250.964844 58.847656 241.25 58.847656 C 231.535156 58.847656 221.988281 61.402344 213.574219 66.25 C 205.15625 71.101562 198.167969 78.078125 193.304688 86.484375 C 188.441406 94.886719 185.875 104.421875 185.867188 114.125 C 185.867188 124.847656 189.683594 134.71875 194.574219 143.878906 C 198.65625 151.570312 200.734375 165.859375 186.675781 173.945312 C 181.59375 176.769531 175.605469 177.492188 170 175.957031 C 164.390625 174.425781 159.605469 170.753906 156.675781 165.738281 C 151.175781 156.945312 144.449219 148.640625 135.234375 143.339844 C 126.8125 138.488281 117.265625 135.9375 107.546875 135.9375 C 97.828125 135.941406 88.277344 138.5 79.863281 143.355469 C 71.445312 148.214844 64.457031 155.195312 59.597656 163.605469 C 54.742188 172.015625 52.183594 181.554688 52.183594 191.261719 C 52.183594 200.972656 54.742188 210.511719 59.597656 218.921875 C 64.457031 227.332031 71.445312 234.3125 79.863281 239.171875 C 88.277344 244.027344 97.828125 246.585938 107.546875 246.589844 C 117.265625 246.589844 126.8125 244.039062 135.234375 239.1875 C 144.523438 233.8125 151.175781 225.582031 156.675781 216.789062 C 161.199219 209.460938 172.46875 200.375 186.675781 208.582031 C 191.664062 211.566406 195.285156 216.386719 196.757812 222.011719 C 198.226562 227.632812 197.433594 233.605469 194.546875 238.648438 C 189.65625 247.808594 185.867188 257.675781 185.867188 268.398438 C 185.867188 278.113281 188.429688 287.65625 193.289062 296.070312 C 198.152344 304.484375 205.144531 311.46875 213.566406 316.328125 C 221.988281 321.183594 231.539062 323.746094 241.265625 323.746094 C 250.988281 323.746094 260.542969 321.191406 268.964844 316.335938 C 277.386719 311.480469 284.378906 304.496094 289.246094 296.085938 C 294.109375 287.671875 296.671875 278.132812 296.675781 268.417969 C 296.679688 258.703125 294.125 249.15625 289.265625 240.742188 C 284.40625 232.328125 277.417969 225.339844 269 220.476562 Z M 269 220.671875 " fill-opacity="1" fill-rule="nonzero"/></g></svg>

<svg xmlns="http://www.w3.org/2000/svg" width="512" height="512" viewBox="0 0 384 384"><defs><clipPath id="a"><path d="M5.707 5.707h372.586v372.586H5.707Zm0 0"/></clipPath><clipPath id="b"><path d="M192 5.707C89.113 5.707 5.707 89.113 5.707 192S89.113 378.293 192 378.293 378.293 294.887 378.293 192 294.887 5.707 192 5.707m0 0"/></clipPath><clipPath id="d"><path d="M.707.707h372.586v372.586H.707Zm0 0"/></clipPath><clipPath id="e"><path d="M187 .707C84.113.707.707 84.113.707 187S84.113 373.293 187 373.293 373.293 289.887 373.293 187 289.887.707 187 .707m0 0"/></clipPath><clipPath id="c"><path d="M0 0h374v374H0z"/></clipPath><clipPath id="f"><path d="M52.184 58.844h244.5V324h-244.5Zm0 0"/></clipPath></defs><g clip-path="url(#a)"><g clip-path="url(#b)"><g clip-path="url(#c)" transform="translate(5 5)"><g clip-path="url(#d)"><g clip-path="url(#e)"><path fill="#0069fe" d="M.707.707h372.586v372.586H.707Zm0 0"/></g></g></g></g></g><g clip-path="url(#f)"><path fill="#fff" d="M269 220.672c-9.367-5.422-19.93-6.984-30.395-7.328-8.777-.293-21.855-5.91-21.855-21.985a22.17 22.17 0 0 1 6.45-15.437 22.21 22.21 0 0 1 15.405-6.543c10.465-.367 21.028-1.93 30.395-7.328a55.3 55.3 0 0 0 20.234-20.266 55.24 55.24 0 0 0 7.391-27.652 55.27 55.27 0 0 0-7.43-27.645 55.33 55.33 0 0 0-20.27-20.234 55.4 55.4 0 0 0-27.675-7.406 55.45 55.45 0 0 0-27.676 7.402 55.33 55.33 0 0 0-27.707 47.875c0 10.723 3.817 20.594 8.707 29.754 4.082 7.691 6.16 21.98-7.898 30.066A22.24 22.24 0 0 1 170 175.957a22.2 22.2 0 0 1-13.324-10.219c-5.5-8.793-12.227-17.097-21.442-22.398a55.46 55.46 0 0 0-27.687-7.403 55.44 55.44 0 0 0-27.684 7.418 55.37 55.37 0 0 0-20.265 20.25 55.3 55.3 0 0 0-7.414 27.657c0 9.71 2.558 19.25 7.414 27.66a55.37 55.37 0 0 0 20.265 20.25 55.44 55.44 0 0 0 27.684 7.418c9.719 0 19.266-2.55 27.687-7.403 9.29-5.375 15.942-13.605 21.442-22.398 4.523-7.328 15.793-16.414 30-8.207a22.2 22.2 0 0 1 10.082 13.43 22.2 22.2 0 0 1-2.211 16.636c-4.89 9.16-8.68 19.028-8.68 29.75a55.33 55.33 0 0 0 27.7 47.93 55.46 55.46 0 0 0 55.398.008 55.326 55.326 0 0 0 27.71-47.918 55.3 55.3 0 0 0-7.41-27.676A55.4 55.4 0 0 0 269 220.477Zm0 0"/></g></svg>
